packages/ffe-icons/icons/filled/md/align_space_even.svg

<svg xmlns="http://www.w3.org/2000/svg" height="24" viewBox="0 -960 960 960" width="24"><path d="M326.154-290.001q-15.365 0-25.759-10.394t-10.394-25.759v-27.692q0-15.365 10.394-25.759t25.759-10.394h307.692q15.365 0 25.759 10.394t10.394 25.759v27.692q0 15.365-10.394 25.759t-25.759 10.394H326.154Zm0-280q-15.365 0-25.759-10.394t-10.394-25.759v-27.692q0-15.365 10.394-25.759t25.759-10.394h307.692q15.365 0 25.759 10.394t10.394 25.759v27.692q0 15.365-10.394 25.759t-25.759 10.394H326.154Zm-196.153 470q-12.75 0-21.375-8.629t-8.625-21.384q0-12.756 8.625-21.371Q117.251-160 130.001-160h699.998q12.75 0 21.375 8.629 8.625 8.628 8.625 21.384 0 12.755-8.625 21.37-8.625 8.616-21.375 8.616H130.001Zm0-699.999q-12.75 0-21.375-8.629-8.625-8.628-8.625-21.384 0-12.755 8.625-21.37 8.625-8.616 21.375-8.616h699.998q12.75 0 21.375 8.629t8.625 21.384q0 12.756-8.625 21.371Q842.749-800 829.999-800H130.001Z"/></svg>

<svg xmlns="http://www.w3.org/2000/svg" height="24" viewBox="0 -960 960 960" width="24"><path d="M326.15-290q-15.36 0-25.76-10.39Q290-310.79 290-326.15v-27.7q0-15.36 10.39-25.76Q310.79-390 326.15-390h307.7q15.36 0 25.76 10.39Q670-369.21 670-353.85v27.7q0 15.36-10.39 25.76Q649.21-290 633.85-290h-307.7Zm0-280q-15.36 0-25.76-10.39Q290-590.79 290-606.15v-27.7q0-15.36 10.39-25.76Q310.79-670 326.15-670h307.7q15.36 0 25.76 10.39Q670-649.21 670-633.85v27.7q0 15.36-10.39 25.76Q649.21-570 633.85-570h-307.7ZM130-100q-12.75 0-21.37-8.63-8.63-8.63-8.63-21.38 0-12.76 8.63-21.37Q117.25-160 130-160h700q12.75 0 21.37 8.63 8.63 8.63 8.63 21.38 0 12.76-8.63 21.37Q842.75-100 830-100H130Zm0-700q-12.75 0-21.37-8.63-8.63-8.63-8.63-21.38 0-12.76 8.63-21.37Q117.25-860 130-860h700q12.75 0 21.37 8.63 8.63 8.63 8.63 21.38 0 12.76-8.63 21.37Q842.75-800 830-800H130Z"/></svg>
